icons/svg/osmc_other/osmc_purple_m.svg

<?xml version="1.0" encoding="UTF-8" standalone="no"?>
<!-- Generator: Adobe Illustrator 16.0.4, SVG Export Plug-In . SVG Version: 6.00 Build 0)  -->

<svg
   xmlns:dc="http://purl.org/dc/elements/1.1/"
   xmlns:cc="http://creativecommons.org/ns#"
   xmlns:rdf="http://www.w3.org/1999/02/22-rdf-syntax-ns#"
   xmlns:svg="http://www.w3.org/2000/svg"
   xmlns="http://www.w3.org/2000/svg"
   xmlns:sodipodi="http://sodipodi.sourceforge.net/DTD/sodipodi-0.dtd"
   xmlns:inkscape="http://www.inkscape.org/namespaces/inkscape"
   version="1.1"
   id="Слой_1"
   x="0px"
   y="0px"
   width="16"
   height="16"
   viewBox="0 0 16 16"
   xml:space="preserve"
   inkscape:version="0.48.4 r9939"
   sodipodi:docname="osmc_ammonit.svg"
   style="enable-background:new"><metadata
     id="metadata11"><rdf:RDF><cc:Work
         rdf:about=""><dc:format>image/svg+xml</dc:format><dc:type
           rdf:resource="http://purl.org/dc/dcmitype/StillImage" /><dc:title></dc:title></cc:Work></rdf:RDF></metadata><defs
     id="defs9" /><sodipodi:namedview
     pagecolor="#ffffff"
     bordercolor="#666666"
     borderopacity="1"
     objecttolerance="10"
     gridtolerance="10"
     guidetolerance="10"
     inkscape:pageopacity="0"
     inkscape:pageshadow="2"
     inkscape:window-width="1332"
     inkscape:window-height="739"
     id="namedview7"
     showgrid="false"
     inkscape:zoom="22.627417"
     inkscape:cx="13.406422"
     inkscape:cy="9.6690919"
     inkscape:window-x="34"
     inkscape:window-y="1024"
     inkscape:window-maximized="1"
     inkscape:current-layer="Слой_1"
     inkscape:snap-bbox="true"
     inkscape:object-nodes="true"
     inkscape:snap-smooth-nodes="true"
     inkscape:bbox-paths="true"
     inkscape:bbox-nodes="true"
     inkscape:snap-bbox-edge-midpoints="true"
     inkscape:snap-bbox-midpoints="true" /><path
     id="path5592"
     d="M 5.3179394,3.9050067 C 4.0594726,4.0185003 2.9866807,4.6270931 2.5946996,5.6070339 2.4296549,6.0299528 2.5018626,7.3296706 2.5018626,7.8970444 c 0.010314,0.4229189 0,3.2905606 0.020628,3.5485096 0.041257,0.371348 0.2269363,0.536318 0.5570257,0.54667 1.1037373,0.06211 0.9696389,-0.175322 0.9696389,-1.299718 l 0,-3.5587671 c 0,-0.3610902 -0.05158,-0.8355799 0.103153,-1.0934343 0.2578817,-0.4332707 0.9490077,-0.649906 1.5782411,-0.5260606 0.2785129,0.051759 0.5467106,0.2062835 0.6911251,0.3919575 0.2269363,0.2888157 0.2269363,0.4847474 0.2372514,0.9387217 0,0.4331766 -0.092837,0.5879833 -0.3816659,0.7426959 C 6.0400084,7.7216281 5.6892879,7.7835508 5.4932969,7.9176539 5.307622,8.0207957 5.111631,8.3715341 5.1528924,8.7222726 c 0.05158,0.4023093 0.2681978,0.464232 0.6292334,0.4950992 1.1243675,0.093166 0.9077463,-0.031055 0.9077463,1.3512892 -0.010314,1.196576 -0.1031531,1.433821 0.8355395,1.444172 0.979954,0.01035 0.7427016,-0.701382 0.7323865,-2.1145938 0,-0.7220864 -0.082523,-0.5673738 1.0108993,-0.6911251 C 9.6091032,9.1657068 9.7947782,9.0316978 9.8050933,8.6293885 9.8154074,7.7835508 9.0314463,7.8145122 8.6394644,7.5669155 8.3196901,7.3812415 8.2990599,7.2265289 8.2990599,6.7520392 c 0,-0.4848416 0.020628,-0.5879833 0.2578826,-0.8664473 0.1650447,-0.1960258 0.4332424,-0.3404807 0.7427016,-0.3816997 0.6292334,-0.1031418 1.3409889,0.1547126 1.5369789,0.6189446 0.185676,0.4435284 -0.06189,3.9816862 0.08252,4.6522012 0.257882,1.237795 1.949592,1.815427 2.692293,0.938722 0.340406,-0.412661 0.185676,-1.382344 -0.68081,-1.072825 -0.381666,0.134103 -0.495134,-0.206283 -0.495134,-0.587983 0,-0.4023095 0.01031,-0.8046188 0.01031,-1.2069281 0,-0.7942669 0,-1.5885337 0.01032,-2.3828005 0,-0.4126611 0,-0.6807732 -0.165045,-1.0109021 C 12.146664,5.1531537 11.98162,4.9674797 11.806259,4.7921576 10.97072,3.9978908 8.88703,3.3479848 7.8142381,4.4516768 7.5563555,4.7198831 7.2468963,4.4723805 7.0509063,4.3176678 6.5970327,3.9669294 6.0090607,3.8431781 5.3179347,3.9050067 z"
     class="fil1"
     inkscape:connector-curvature="0"
     style="fill:#850094;fill-rule:evenodd" /></svg>

<svg width="16" height="16" viewBox="0 0 16 16" fill="none" xmlns="http://www.w3.org/2000/svg">
<path fill-rule="evenodd" clip-rule="evenodd" d="M5.31793 3.905C4.05947 4.01849 2.98667 4.62708 2.59469 5.60702C2.42965 6.02994 2.50186 7.32966 2.50186 7.89703C2.51217 8.31995 2.50186 11.1876 2.52248 11.4455C2.56374 11.8169 2.74942 11.9819 3.07951 11.9922C4.18325 12.0543 4.04915 11.8169 4.04915 10.6925V7.13373C4.04915 6.77264 3.99757 6.29815 4.1523 6.04029C4.41018 5.60702 5.10131 5.39039 5.73054 5.51423C6.00905 5.56599 6.27725 5.72052 6.42167 5.90619C6.6486 6.19501 6.6486 6.39094 6.65892 6.84491C6.65892 7.27809 6.56608 7.4329 6.27725 7.58761C6.04 7.72162 5.68928 7.78354 5.49329 7.91764C5.30761 8.02079 5.11162 8.37152 5.15289 8.72226C5.20447 9.12457 5.42108 9.18649 5.78212 9.21736C6.90649 9.31053 6.68986 9.18631 6.68986 10.5687C6.67955 11.7652 6.58671 12.0025 7.5254 12.0128C8.50536 12.0232 8.26811 11.3114 8.25779 9.89823C8.25779 9.17614 8.17527 9.33086 9.26869 9.2071C9.6091 9.1657 9.79477 9.03169 9.80509 8.62938C9.8154 7.78354 9.03144 7.8145 8.63946 7.56691C8.31968 7.38123 8.29905 7.22652 8.29905 6.75203C8.29905 6.26719 8.31968 6.16405 8.55694 5.88558C8.72198 5.68956 8.99018 5.5451 9.29964 5.50388C9.92887 5.40074 10.6406 5.65859 10.8366 6.12283C11.0223 6.56635 10.7747 10.1045 10.9191 10.775C11.177 12.0128 12.8687 12.5905 13.6114 11.7138C13.9518 11.3011 13.7971 10.3314 12.9306 10.6409C12.549 10.775 12.4355 10.4346 12.4355 10.0529C12.4355 9.65063 12.4458 9.24832 12.4458 8.84601C12.4458 8.05175 12.4458 7.25748 12.4561 6.46321C12.4561 6.05055 12.4561 5.78244 12.2911 5.45231C12.1467 5.15314 11.9816 4.96747 11.8063 4.79215C10.9707 3.99788 8.88702 3.34797 7.81423 4.45167C7.55635 4.71987 7.24689 4.47237 7.0509 4.31766C6.59702 3.96692 6.00905 3.84317 5.31793 3.905H5.31793Z" fill="#850094"/>
</svg>
